src/assets/svg/loading.svg

<svg xmlns="http://www.w3.org/2000/svg" width="499.818" height="525" viewBox="149.8 37.8 499.818 525" enable-background="new 149.8 37.8 499.818 525"><path d="M557.8 187.8c13.8 0 24.6-10.8 24.6-24.6s-10.8-24.6-24.6-24.6-24.6 10.8-24.6 24.6c0 13.2 10.8 24.6 24.6 24.6zm61.2 90.6c-16.8 0-30.6 13.8-30.6 30.6s13.8 30.6 30.6 30.6 30.6-13.8 30.6-30.6c.6-16.8-13.2-30.6-30.6-30.6zm-61.2 145.2c-20.4 0-36.6 16.2-36.6 36.6 0 20.4 16.2 36.6 36.6 36.6 20.4 0 36.6-16.2 36.6-36.6.6-20.4-16.2-36.6-36.6-36.6zM409 476.4c-24 0-43.2 19.2-43.2 43.2s19.2 43.2 43.2 43.2 43.2-19.2 43.2-43.2-19.2-43.2-43.2-43.2zM260.8 411c-27 0-49.2 22.2-49.2 49.2s22.2 49.2 49.2 49.2 49.2-22.2 49.2-49.2-22.2-49.2-49.2-49.2zm-10.2-102c0-27.6-22.8-50.4-50.4-50.4-27.6 0-50.4 22.8-50.4 50.4 0 27.6 22.8 50.4 50.4 50.4 27.6 0 50.4-22.2 50.4-50.4zm10.2-199.8c-30 0-54 24-54 54s24 54 54 54 54-24 54-54-24.6-54-54-54zM409 37.8c-35.4 0-63.6 28.8-63.6 63.6S374.2 165 409 165s63.6-28.8 63.6-63.6-28.2-63.6-63.6-63.6z"/></svg>

<?xml version="1.0" encoding="utf-8"?>
<!-- Generator: Adobe Illustrator 14.0.0, SVG Export Plug-In . SVG Version: 6.00 Build 43363)  -->
<!DOCTYPE svg PUBLIC "-//W3C//DTD SVG 1.1//EN" "http://www.w3.org/Graphics/SVG/1.1/DTD/svg11.dtd">
<svg version="1.1" id="Layer_1" xmlns="http://www.w3.org/2000/svg" xmlns:xlink="http://www.w3.org/1999/xlink" x="0px" y="0px"
	 width="499.818px" height="525px" viewBox="149.8 37.8 499.818 525" enable-background="new 149.8 37.8 499.818 525"
	 xml:space="preserve">
<g>
	<path d="M557.8,187.8c13.8,0,24.601-10.8,24.601-24.6c0-13.8-10.801-24.6-24.601-24.6s-24.6,10.8-24.6,24.6
		C533.2,176.4,544,187.8,557.8,187.8z M619,278.4c-16.8,0-30.6,13.8-30.6,30.6s13.8,30.6,30.6,30.6s30.6-13.8,30.6-30.6
		C650.2,292.2,636.4,278.4,619,278.4z M557.8,423.6c-20.399,0-36.6,16.2-36.6,36.601c0,20.399,16.2,36.6,36.6,36.6
		c20.4,0,36.601-16.2,36.601-36.6C595,439.8,578.2,423.6,557.8,423.6z M409,476.4c-24,0-43.2,19.199-43.2,43.199
		s19.2,43.2,43.2,43.2s43.2-19.2,43.2-43.2S433,476.4,409,476.4z M260.8,411c-27,0-49.2,22.2-49.2,49.2s22.2,49.2,49.2,49.2
		s49.2-22.2,49.2-49.2S287.8,411,260.8,411z M250.6,309c0-27.6-22.8-50.4-50.4-50.4c-27.6,0-50.4,22.8-50.4,50.4
		c0,27.6,22.8,50.4,50.4,50.4C227.8,359.4,250.6,337.2,250.6,309z M260.8,109.2c-30,0-54,24-54,54s24,54,54,54s54-24,54-54
		S290.2,109.2,260.8,109.2z M409,37.8c-35.4,0-63.6,28.8-63.6,63.6c0,34.8,28.8,63.6,63.6,63.6s63.6-28.8,63.6-63.6
		C472.6,66.6,444.4,37.8,409,37.8z"/>
</g>
</svg>
